icons/ArrowDownRight.svg

<svg width="24" height="24" viewBox="0 0 24 24" fill="none" xmlns="http://www.w3.org/2000/svg">
<path fill-rule="evenodd" clip-rule="evenodd" d="M18.9771,18.227c0,0.4142 -0.3358,0.75 -0.75,0.75h-11.31375c-0.41421,0 -0.75,-0.3358 -0.75,-0.75c0,-0.4142 0.33579,-0.75 0.75,-0.75h9.50305l-11.919,-11.91899c-0.29289,-0.2929 -0.29289,-0.76777 0,-1.06066c0.2929,-0.2929 0.76777,-0.2929 1.06066,0l11.91904,11.91895v-9.50301c0,-0.41421 0.3357,-0.75 0.75,-0.75c0.4142,0 0.75,0.33579 0.75,0.75z" fill="#002B51"/>
</svg>

<svg width="24" height="24" viewBox="0 0 24 24" fill="none" xmlns="http://www.w3.org/2000/svg">
<path fill-rule="evenodd" clip-rule="evenodd" d="M18.9771 18.227C18.9771 18.6412 18.6413 18.977 18.2271 18.977H6.91335C6.49914 18.977 6.16335 18.6412 6.16335 18.227C6.16335 17.8128 6.49914 17.477 6.91335 17.477H16.4164L4.4974 5.55801C4.20451 5.26511 4.20451 4.79024 4.4974 4.49735C4.7903 4.20445 5.26517 4.20445 5.55806 4.49735L17.4771 16.4163V6.91329C17.4771 6.49908 17.8128 6.16329 18.2271 6.16329C18.6413 6.16329 18.9771 6.49908 18.9771 6.91329V18.227Z" fill="#002B51"/>
</svg>
